X:221
T:Reel 221
M:4/4
K:Dmaj
L:1/8
AG|F>D (3DDD D>D (3DCD |A,DcD DFA2|B>G (3GFE FGAF|EDEF GABc|d>D (3DDD A,>D (3DDD |F>D (3Fcd B>d (3dcd |B>E (3FED B>E (3EDE |dD2D D2|A2|E>E (3EEE GEEE|FEDE D>F (3FEF |B>E (3EEE c>d (3cBc |dcBc dcdA| (3FED AD FDAD (3FED |EEFE  (3EEE B2|B>E (3EEE B>E (3EDE |EDCD D2|
